!!!!SEGMENT: pl-wtm--r-1588--004_stefani-jozef--antiphonae-ad-vesperas-antiphona.krn
!!!id: 18xx:2346
!!!COM: Stefani, Józef
!!!COM-rism: pe30024097
!!!CDT: 1800/04/16-1876/03/19
!!!CNT: Polish
!!!OTL: Antiphonae ad Vesperas – Antiphona
!!!PDT:
!!!SMS-siglum: PL-Wtm
!!!SMS-shelfmark: R 1588
!!!NIFC-rismID: 1001115605
!!!URL-scan: http://repozytorium.nifc.pl/skany/pl-wtm-nut--r1588
!!!ONB-nifc: UWAGA: części: 4 Antyfony (001-004), Hymnus (005) i Magnificat (006)
!!!SMS-variant:
!!!SMS-altvar:
**kern	**text	**dynam	**kern	**dynam	**kern	**text	**dynam
*part3	*part3	*part3	*part2	*part2	*part1	*part1	*part1
*staff3	*staff3	*	*staff2	*	*staff1	*staff1	*
*I"Basſo	*	*	*I"Tenore 2°.	*	*I"Tenore 1°.	*	*
*clefF4	*	*	*clefC4	*	*clefC4	*	*
*k[f#c#]	*	*	*k[f#c#]	*	*k[f#c#]	*	*
*M4/4	*	*	*M4/4	*	*M4/4	*	*
*met(c)	*	*	*met(c)	*	*met(c)	*	*
*2\right	*	*	*2\right	*	*2\right	*	*
!	!	!LO:DY:a	!	!	!LO:TX:i:a:t=Allegro moderato.	!	!
!	!	!	!	!	!LO:TX:t=P:problem:all\right:global	!	!
!	!	!	!	!	!LO:TX:i:a:t=Antiphona IV	!	!LO:DY:b:rj
!LO:TX:t=P:problem:znaki przykluczowe: Gn, F#, C#	!	!	!LO:TX:t=P:problem:znaki przykluczowe: Gn, c#, F#	!	!LO:TX:t=P:problem:znaki przykluczowe: Gn, c#, F#	!	!
4A\	Iam	.	4A\	.	4A\	Iam	f
=1	=1	=1	=1	=1	=1	=1	=1
!	!	!LO:DY:a:rj	!	!	!	!	!
2.D\	hi-	f	(<2F#/	.	(>2d\	hi-	.
.	.	.	4G/)	.	4B\)	.	.
4D\	-ems	.	4G/	.	4c#\	-ems	.
=2	=2	=2	=2	=2	=2	=2	=2
4.D\	tran-	.	4.F#/	.	4.d\	tran-	.
8D\	-si-	.	8F#/	.	8d\	-si-	.
4D\	-it	.	4F#/	.	4d\	-it,	.
4r	.	.	4r	.	4r	.	.
=3	=3	=3	=3	=3	=3	=3	=3
!	!	!LO:DY:a:rj	!	!	!	!	!LO:DY:a:rj
(>4AA/	im-	p	2A\	.	(>2c#\	im-	p
4F#\	.	.	.	.	.	.	.
.	.	.	8qc#/	.	8qe/)	.	.
4D\)	.	.	4B\	.	4d\	.	.
!	!	!	!LO:TX:a:t=P:problem:krzyżyk dopisany ołówkiem	!	!	!	!
4E\	-ber	.	4G#X\	.	4B|>\	-ber	.
!!LO:PB:g=original
=4	=4	=4	=4	=4	=4	=4	=4
4.AA/	u-	.	4.A\	.	4.c#\	u-	.
8AA/	-bi-	.	8A\	.	8c#\	-bi-	.
4AA/	-it,	.	4A\	.	4c#\	-it,	.
!	!	!LO:DY:a:rj	!	!	!	!	!LO:DY:a:rj
(<8AA/L	et	f	(>8A\L	.	(>8A\L	et	f
8C#/J)	.	.	8c#\J)	.	8c#\J)	.	.
=5	=5	=5	=5	=5	=5	=5	=5
2E^>\	re-	.	2e\	.	2e^>\	re-	.
2E^>\	-ces-	.	2e\	.	2e^>\	-ces-	.
=6	=6	=6	=6	=6	=6	=6	=6
2.E\	-sit:	.	2.E/	.	2.E^>/	-sit:	.
4r	.	.	4r	.	4r	.	.
=7	=7	=7	=7	=7	=7	=7	=7
!	!	!	!	!	!LO:TX:i:a:t=dolce e	!	!
2E\	sur-	.	2B\	.	2d\	sur-	.
!	!	!	!	!	!	!	!LO:DY:a:t=piano
2E\	-ge,	.	(>4G#X/	.	(>4B\	-ge,	p
.	.	.	4A/)	.	4c#\)	.	.
=8	=8	=8	=8	=8	=8	=8	=8
2E\	sur-	.	2B\	.	2d\	sur-	.
4E\	-ge,	.	4G#X/	.	4B\	-ge	.
4r	.	.	4r	.	4r	.	.
!!LO:LB:g=original
=9	=9	=9	=9	=9	=9	=9	=9
(>4E\	a-	.	2G#X/	.	2B\	a-	.
4D\)	.	.	.	.	.	.	.
!	!	!LO:HP:a	!	!LO:HP:a	!	!	!LO:HP:a
4.C#/	-mi-	<	4.A\	<	4.c#\	-mi-	<
8BB/	-ca	[[	8B\	.	8d\	-ca	.
=10	=10	=10	=10	=10	=10	=10	=10
!	!	!	!	!	!	!	!LO:DY:a
2AA/	me-	.	2c#\	[	2e\	me-	[
!	!	!LO:DY:a:rj	!	!LO:DY:a:rj	!	!	!LO:DY:a:rj
4D#X;>/	-a	f	4B#X;>\	f	4f#;>\	-a,	f
!	!	!	!	!	!	!	!LO:DY:a
4r	.	.	4r	.	(>8A\L	et	p
.	.	.	.	.	8B\J)	.	.
=11	=11	=11	=11	=11	=11	=11	=11
4r	.	.	4r	.	(>2c#\	ve-	.
!	!	!LO:DY:a:rj	!	!LO:DY:a	!	!	!
4E\	et	p	4A\	p	.	.	.
2E\	ve-	.	(>4A\	.	2B\)	.	.
.	.	.	4G#X\)	.	.	.	.
=12	=12	=12	=12	=12	=12	=12	=12
2A\	-ni.	.	2A\	.	2A\	-ni.	.
4r;>	.	.	4r;>	.	4r;>	.	.
==	==	==	==	==	==	==	==
*-	*-	*-	*-	*-	*-	*-	*-
!!!system-decoration: {s1,s2,s3}
!!!RDF**kern: | = vertical stroke
!!!RDF**kern: > = above
!!!RDF**kern: < = below
!!!EED: Antoni Szymański
!!!EST: 2021-06-13
!!!ENC: Andrzej Gręziak
!!!END: 2021-06-04
